build/img/0-common/instagram.svg

<svg width="25" height="25" viewBox="0 0 25 25" fill="none" xmlns="http://www.w3.org/2000/svg">
<path d="M14.8926 12.5C14.8926 13.8214 13.8214 14.8926 12.5 14.8926C11.1786 14.8926 10.1074 13.8214 10.1074 12.5C10.1074 11.1786 11.1786 10.1074 12.5 10.1074C13.8214 10.1074 14.8926 11.1786 14.8926 12.5Z" fill="#333333"/>
<path d="M18.0952 8.26682C17.9802 7.95516 17.7967 7.67307 17.5583 7.44151C17.3267 7.20309 17.0448 7.01961 16.733 6.90459C16.48 6.80637 16.1001 6.68945 15.4003 6.65759C14.6433 6.62307 14.4163 6.61563 12.4998 6.61563C10.5831 6.61563 10.3561 6.62288 9.59928 6.6574C8.89948 6.68945 8.51934 6.80637 8.26662 6.90459C7.95477 7.01961 7.67267 7.20309 7.44131 7.44151C7.20289 7.67307 7.0194 7.95497 6.9042 8.26682C6.80597 8.51974 6.68905 8.89987 6.6572 9.59968C6.62267 10.3565 6.61523 10.5835 6.61523 12.5002C6.61523 14.4167 6.62267 14.6437 6.6572 15.4007C6.68905 16.1005 6.80597 16.4804 6.9042 16.7334C7.0194 17.0452 7.2027 17.3271 7.44112 17.5587C7.67267 17.7971 7.95457 17.9806 8.26643 18.0956C8.51934 18.194 8.89948 18.3109 9.59928 18.3428C10.3561 18.3773 10.5829 18.3845 12.4996 18.3845C14.4165 18.3845 14.6435 18.3773 15.4001 18.3428C16.0999 18.3109 16.48 18.194 16.733 18.0956C17.3589 17.8541 17.8537 17.3593 18.0952 16.7334C18.1934 16.4804 18.3103 16.1005 18.3424 15.4007C18.3769 14.6437 18.3841 14.4167 18.3841 12.5002C18.3841 10.5835 18.3769 10.3565 18.3424 9.59968C18.3105 8.89987 18.1936 8.51974 18.0952 8.26682ZM12.4998 16.1858C10.4641 16.1858 8.81384 14.5357 8.81384 12.5C8.81384 10.4643 10.4641 8.81423 12.4998 8.81423C14.5353 8.81423 16.1855 10.4643 16.1855 12.5C16.1855 14.5357 14.5353 16.1858 12.4998 16.1858ZM16.3313 9.52987C15.8556 9.52987 15.4699 9.1442 15.4699 8.66851C15.4699 8.19282 15.8556 7.80715 16.3313 7.80715C16.807 7.80715 17.1926 8.19282 17.1926 8.66851C17.1924 9.1442 16.807 9.52987 16.3313 9.52987Z" fill="#333333"/>
<path d="M12.5 0C5.5975 0 0 5.5975 0 12.5C0 19.4025 5.5975 25 12.5 25C19.4025 25 25 19.4025 25 12.5C25 5.5975 19.4025 0 12.5 0ZM19.6344 15.4593C19.5997 16.2233 19.4782 16.745 19.3008 17.2016C18.928 18.1658 18.1658 18.928 17.2016 19.3008C16.7452 19.4782 16.2233 19.5995 15.4594 19.6344C14.694 19.6693 14.4495 19.6777 12.5002 19.6777C10.5507 19.6777 10.3064 19.6693 9.54075 19.6344C8.77686 19.5995 8.255 19.4782 7.79858 19.3008C7.31945 19.1206 6.88572 18.8381 6.52714 18.4729C6.16207 18.1145 5.87959 17.6805 5.69935 17.2016C5.52197 16.7452 5.40047 16.2233 5.36575 15.4594C5.33047 14.6938 5.32227 14.4493 5.32227 12.5C5.32227 10.5507 5.33047 10.3062 5.36556 9.54075C5.40028 8.77666 5.52158 8.255 5.69897 7.79839C5.87921 7.31945 6.16188 6.88553 6.52714 6.52714C6.88553 6.16188 7.31945 5.8794 7.79839 5.69916C8.255 5.52177 8.77666 5.40047 9.54075 5.36556C10.3062 5.33066 10.5507 5.32227 12.5 5.32227C14.4493 5.32227 14.6938 5.33066 15.4593 5.36575C16.2233 5.40047 16.745 5.52177 17.2016 5.69897C17.6805 5.87921 18.1145 6.16188 18.4731 6.52714C18.8381 6.88572 19.1208 7.31945 19.3008 7.79839C19.4784 8.255 19.5997 8.77666 19.6346 9.54075C19.6695 10.3062 19.6777 10.5507 19.6777 12.5C19.6777 14.4493 19.6695 14.6938 19.6344 15.4593Z" fill="#333333"/>
</svg>

<svg width="25" height="25" fill="none" xmlns="http://www.w3.org/2000/svg"><path d="M14.893 12.5a2.393 2.393 0 11-4.786 0 2.393 2.393 0 014.786 0z" fill="#333"/><path d="M18.095 8.267a2.224 2.224 0 00-.537-.825 2.223 2.223 0 00-.825-.537c-.253-.099-.633-.216-1.333-.247-.757-.035-.984-.042-2.9-.042-1.917 0-2.144.007-2.9.041-.7.032-1.08.15-1.333.248a2.22 2.22 0 00-.826.537 2.225 2.225 0 00-.537.825c-.098.253-.215.633-.247 1.333-.034.757-.042.984-.042 2.9 0 1.917.008 2.144.042 2.9.032.7.149 1.08.247 1.333.115.312.299.594.537.826.232.238.514.422.825.537.253.098.633.215 1.333.247.757.034.984.041 2.9.041 1.917 0 2.144-.007 2.901-.041.7-.032 1.08-.149 1.333-.247a2.378 2.378 0 001.362-1.363c.098-.253.215-.633.247-1.332.035-.757.042-.984.042-2.9 0-1.917-.007-2.144-.042-2.901-.031-.7-.148-1.08-.247-1.333zM12.5 16.186a3.686 3.686 0 110-7.372 3.686 3.686 0 010 7.372zM16.33 9.53a.861.861 0 110-1.723.861.861 0 010 1.723z" fill="#333"/><path d="M12.5 0C5.598 0 0 5.598 0 12.5S5.598 25 12.5 25 25 19.402 25 12.5 19.402 0 12.5 0zm7.134 15.46c-.034.763-.156 1.285-.333 1.742a3.67 3.67 0 01-2.1 2.099c-.456.177-.978.299-1.742.333-.765.035-1.01.044-2.959.044-1.95 0-2.194-.009-2.96-.044-.763-.035-1.285-.156-1.741-.333a3.516 3.516 0 01-1.272-.828 3.518 3.518 0 01-.828-1.271c-.177-.457-.299-.979-.333-1.743-.036-.765-.044-1.01-.044-2.959 0-1.95.008-2.194.044-2.96.034-.763.156-1.285.333-1.742.18-.479.463-.912.828-1.27a3.516 3.516 0 011.271-.829c.457-.177.979-.299 1.743-.333.765-.035 1.01-.044 2.959-.044 1.95 0 2.194.009 2.96.044.763.034 1.285.156 1.742.333.478.18.912.463 1.271.828.365.359.648.792.828 1.271.177.457.299.979.334 1.743.034.765.043 1.01.043 2.959 0 1.95-.009 2.194-.044 2.96z" fill="#333"/></svg>
